X: 382
T: Huish the cat
C: anon.
O: Ireland
B: Francis O'Neill: "The Dance Music of Ireland" (1907) no. 382
R: Single jig
Z: Transcribed by Frank Nordberg - http://www.musicaviva.com
F: http://www.musicaviva.com/abc/tunes/ireland/oneill-1001/oneill-1001-038
2.abc
M: 6/8
L: 1/8
K: C
G>AG c2e|d<dA c2e|G>AG c2d|ecA A2c|G>AG c2e|d<dA c2e|g>fe f2d|ecA A2({B/A
/}G):|
|:gfe f2d|edc f2d|gfe f2d|ecA A2G|gfe f2d|edc f2d|G>AG f2d|ecA A2({B/A/}G
):|
%Bar 2: two first notes org. 8th note and dotted 16th note!
W:
W:
W: From Musica Viva - http://www.musicaviva.com
W: the Internet center for free sheet music downloads.


